X: 16058
T: Green Fields Of America, The
R: reel
M: 4/4
K: Gmajor
|:e4 d3 B|GABA AGE2|GAGE DEGA|BGAB AGEG|
e4 d3 B|GABA AGE2|GAGE DEGB|1 AGAB G4:|2 AGAB G3 D||
GABc d2Bd|egge dBGB|c2ec B2dB|AdBG AGEF|
GABc d2Bd|egge dBGB|c2ec B2dB|AGAB G3 D||
GABc d2Bd|egge dBGB|c2ec B2dB|AdBG AGE2|
gfed efge|d2BG AGEF|GAGE DEGB AGAB G4||

